X: 249
T: Qu Qiucai
%%abc-version 2.0
%%abcx-abcm2ps-target-version 5.9.1 (29 Sep 2008)
%%abc-creator hum2abc beta
%%abcx-conversion-date 2013/10/02 07:52:29
%%abc-edited-by Helmut Schaffrath
%%humdrum-veritas 949130168
%%humdrum-veritas-data 4164358477
%%continueall 1
%%barnumbers 0
L: 1/8
M: 2/4
K: G
GG2A [I:setbarnb 1]| 
d g e d | 
e d B A | 
G2e d | 
GG2A | 
d> g e d | 
e d B A | 
G4 | 
d d g B | 
A3B | 
d d A d | 
B AG2 | 
G E G A | 
d d A G | 
G E D B, | 
D G, D A, | 
G,4 |]  



